X:309
%%etbk:tnset id:96,pos:1,rep:3x,ant:
%%etbk:tnset id:263,pos:5,rep:2x,ant:
%%etbk:tnset id:513,pos:2,rep:2x,ant:
%%etbk:wsite http://www.thesession.org/tunes/display/89
%%etbk:pldat 2016-06-22T16:08,2016-06-20T18:28,2016-05-05T15:18,2016-05-04T15:50,2016-05-03T15:39,2016-03-10T18:37,2016-03-08T15:42,2016-03-05T15:32,2016-02-23T17:15,2015-10-28T15:36,2015-10-25T14:01,2015-10-21T16:12,2015-10-13T16:29,2015-10-03T16:35,2015-06-22T18:34,2015-04-21T15:39,2015-03-11T16:25,2015-03-06T16:03,2015-02-10T18:10,2015-01-29T18:27,2014-11-05T18:00,2014-11-02T14:26,2014-10-28T16:54,2014-10-10T16:20,2014-08-21T19:04,2014-08-20T19:21,2014-08-02T16:10,2014-07-30T18:17,2014-06-23T18:13,2014-06-13T15:43,2014-06-03T16:01,2014-03-05T18:07,2014-03-01T17:22,2014-02-27T18:27,2014-02-25T17:59,2013-10-29T15:32,2013-10-26T16:16,2013-10-17T18:39,2013-10-13T16:31,2013-10-09T15:18,2013-08-29T15:23
T: Rambling Pitchfork, The
Z: Piano Box Version by Martin Fleischmann
H: Created 2013-02-19 /  Last Modified 2013-02-19
M: 6/8
L: 1/8
R: jig
K: Dmaj
|: "D"!2!F{A}FF !4!A!2!FF | !5!d!2!FF !4!A!2!F!1!D | "G"!3!GF!3!G !1!ABc | "A"!4!ded !3!c!1!A!3!G |
"D"!2!F!1!F!2!F !4!A!2!FF | !5!d!2!FF !4!A!2!F!1!D | "G"!3!G!2!G!3!G !5!BAG | "D"!4!A!2!F!1!D D3:|
|: "D"!3!d2e !5!fed | "A"!4!e!2!c!1!A !1!A!2!F!1!A | "D"!3!d!2!c!1!d !2!efg | !3!faf "A"!4!gfe |
"D"!1!d2e !3!fe!1!d | "A"!4!e!2!c!1!A !4!A!2!F!1!D | "G"!3!G{A}GG !5!BAG | "D"!4!A!2!F!1!D D3:|


